docs/img/advantage/icon-circlefork.svg

<svg width="100" height="100" viewBox="0 0 100 100" fill="none" xmlns="http://www.w3.org/2000/svg">
<path d="M90.7227 78.9062L70.2148 61.6211C71.7122 58.431 72.1517 55.0618 71.5332 51.5137C70.9147 47.9655 69.3359 44.8893 66.7969 42.2852L56.7383 32.4219C54.7201 30.4036 52.6367 28.776 50.4883 27.5391C48.3398 26.3021 46.6797 25.5859 45.5078 25.3906L43.75 25C43.75 25.2604 43.8151 25.6348 43.9453 26.123C44.0755 26.6113 44.6777 27.6693 45.752 29.2969C46.8262 30.9245 48.2422 32.6172 50 34.375L60.3516 47.2656C60.8724 47.5911 61.084 48.4049 60.9863 49.707C60.8887 51.0091 60.3516 52.1484 59.375 53.125L46.875 40.625C45.3776 39.1276 43.5872 37.8581 41.5039 36.8164C39.4206 35.7747 37.7279 35.1237 36.4258 34.8633L34.375 34.375C34.4401 34.8958 34.5703 35.612 34.7656 36.5234C34.9609 37.4349 35.5957 38.9974 36.6699 41.2109C37.7441 43.4245 39.0625 45.3125 40.625 46.875L53.125 59.375C52.0833 60.4167 50.9603 61.0026 49.7559 61.1328C48.5514 61.263 47.7214 61.0026 47.2656 60.3516L34.375 50C32.487 48.112 30.7617 46.6471 29.1992 45.6055C27.6367 44.5638 26.5625 44.0104 25.9766 43.9453L25 43.75C25.0651 44.2057 25.1953 44.8568 25.3906 45.7031C25.5859 46.5495 26.3021 48.112 27.5391 50.3906C28.776 52.6693 30.4036 54.7852 32.4219 56.7383L42.3828 66.6992C44.9219 69.3034 47.9655 70.9147 51.5137 71.5332C55.0618 72.1517 58.3984 71.7122 61.5234 70.2148L79.0039 90.7227C70.2799 96.9076 60.612 100 50 100C43.2292 100 36.7513 98.6816 30.5664 96.0449C24.3815 93.4082 19.0592 89.86 14.5996 85.4004C10.14 80.9408 6.5918 75.6185 3.95508 69.4336C1.31836 63.2487 0 56.7708 0 50C0 43.2292 1.31836 36.7513 3.95508 30.5664C6.5918 24.3815 10.14 19.0592 14.5996 14.5996C19.0592 10.14 24.3815 6.5918 30.5664 3.95508C36.7513 1.31836 43.2292 0 50 0C56.7708 0 63.2487 1.31836 69.4336 3.95508C75.6185 6.5918 80.9408 10.14 85.4004 14.5996C89.86 19.0592 93.4082 24.3815 96.0449 30.5664C98.6816 36.7513 100 43.2292 100 50C100 60.612 96.9076 70.2474 90.7227 78.9062Z" fill="#FE9E45"/>
</svg>

<svg width="100" height="100" fill="none" xmlns="http://www.w3.org/2000/svg"><path d="M90.723 78.906L70.215 61.621c1.497-3.19 1.937-6.56 1.318-10.107-.618-3.549-2.197-6.625-4.736-9.229l-10.059-9.863c-2.018-2.018-4.101-3.646-6.25-4.883-2.148-1.237-3.808-1.953-4.98-2.148L43.75 25c0 .26.065.635.195 1.123s.733 1.546 1.807 3.174c1.074 1.627 2.49 3.32 4.248 5.078l10.352 12.89c.52.326.732 1.14.634 2.442-.097 1.302-.634 2.441-1.611 3.418l-12.5-12.5c-1.497-1.497-3.288-2.767-5.371-3.809-2.083-1.041-3.776-1.692-5.078-1.953l-2.051-.488c.065.52.195 1.237.39 2.148.196.912.83 2.474 1.905 4.688 1.074 2.214 2.392 4.102 3.955 5.664l12.5 12.5c-1.042 1.042-2.165 1.628-3.37 1.758-1.204.13-2.034-.13-2.49-.781L34.376 50c-1.888-1.888-3.613-3.353-5.176-4.395-1.562-1.041-2.637-1.595-3.222-1.66L25 43.75c.065.456.195 1.107.39 1.953.196.846.912 2.409 2.15 4.688 1.236 2.278 2.864 4.394 4.882 6.347l9.96 9.961c2.54 2.604 5.584 4.216 9.132 4.834 3.548.619 6.884.18 10.01-1.318l17.48 20.508C70.28 96.908 60.612 100 50 100c-6.77 0-13.249-1.318-19.434-3.955C24.382 93.408 19.06 89.86 14.6 85.4c-4.46-4.46-8.008-9.782-10.645-15.966C1.318 63.249 0 56.77 0 50c0-6.77 1.318-13.249 3.955-19.434C6.592 24.382 10.14 19.06 14.6 14.6c4.46-4.46 9.781-8.008 15.966-10.645C36.751 1.318 43.23 0 50 0c6.77 0 13.249 1.318 19.434 3.955C75.618 6.592 80.94 10.14 85.4 14.6c4.46 4.46 8.008 9.781 10.645 15.966C98.682 36.751 100 43.23 100 50c0 10.612-3.092 20.247-9.277 28.906z" fill="#FE9E45"/></svg>
